src/symbols/sonar.svg

<svg xmlns="http://www.w3.org/2000/svg" viewBox="0 0 15 15"><path fill-rule="evenodd" clip-rule="evenodd" d="M14.5 4.9c-.8-2.1-2.4-3.7-4.5-4.5C9.3.2 8.4 0 7.5 0 3.4 0 0 3.4 0 7.5S3.4 15 7.5 15 15 11.6 15 7.5c0-.9-.2-1.8-.5-2.6zm-4 2.6c0 1.7-1.3 3-3 3s-3-1.3-3-3 1.3-3 3-3c.4 0 .7.1 1 .2L7.7 7H7v1h1v-.7l2.3-.8c.1.3.2.6.2 1zm-3 6.1c-3.6 0-6.1-2.6-6.1-6.1 0-3.6 2.6-6.1 6.1-6.1.8 0 1.5.1 2.1.3l-.9 2.5c-.4-.1-.8-.2-1.2-.2C5.6 4 4 5.6 4 7.5S5.6 11 7.5 11 11 9.4 11 7.5c0-.4-.1-.8-.2-1.2l2.5-.9c.2.7.3 1.4.3 2.1 0 3.6-2.5 6.1-6.1 6.1z"/></svg>

<?xml version="1.0" encoding="utf-8"?>
<!-- Generator: Adobe Illustrator 18.1.1, SVG Export Plug-In . SVG Version: 6.00 Build 0)  -->
<svg version="1.1" xmlns="http://www.w3.org/2000/svg" xmlns:xlink="http://www.w3.org/1999/xlink" x="0px" y="0px"
	 viewBox="0 0 15 15" enable-background="new 0 0 15 15" xml:space="preserve">
<g id="_x31_1px">
</g>
<g id="_x31_5px">
	<path fill-rule="evenodd" clip-rule="evenodd" d="M14.5,4.9L14.5,4.9L14.5,4.9c-0.8-2.1-2.4-3.7-4.5-4.5l0,0l0,0
		C9.3,0.2,8.4,0,7.5,0C3.4,0,0,3.4,0,7.5C0,11.6,3.4,15,7.5,15c4.1,0,7.5-3.4,7.5-7.5C15,6.6,14.8,5.7,14.5,4.9z M10.5,7.5
		c0,1.7-1.3,3-3,3c-1.7,0-3-1.3-3-3s1.3-3,3-3c0.4,0,0.7,0.1,1,0.2L7.7,7H7v1h1V7.3l2.3-0.8C10.4,6.8,10.5,7.1,10.5,7.5z M7.5,13.6
		c-3.6,0-6.1-2.6-6.1-6.1c0-3.6,2.6-6.1,6.1-6.1c0.8,0,1.5,0.1,2.1,0.3L8.7,4.2C8.3,4.1,7.9,4,7.5,4C5.6,4,4,5.6,4,7.5
		C4,9.4,5.6,11,7.5,11C9.4,11,11,9.4,11,7.5c0-0.4-0.1-0.8-0.2-1.2l2.5-0.9c0.2,0.7,0.3,1.4,0.3,2.1C13.6,11.1,11.1,13.6,7.5,13.6z"
		/>
</g>
</svg>
